X: 82
T: Zhai huajiao
L: 1/16
M: 2/4
K: A
e2 c e2< B2 c [I:setbarnb 1]| 
e f c e B2 c B | 
A2> B2 e2 c B | 
c B B FA4 | 
A2> B2 e2 c e | 
B2 e2 B c B A | 
E F A2 c B A G | 
G F F CE4 | 
A B c e B c B A | 
E F A2 c B A G | 
G F F CE4 |]

@@@ Tune index: 8956
